src/assets/img/bio/small-circle--grape.svg

<svg fill="none" height="35" viewBox="0 0 80 35" width="80" xmlns="http://www.w3.org/2000/svg"><path clip-rule="evenodd" d="m30.6814 3.65047c-6.1935.02448-11.804 1.64016-17.0105 3.94422-5.73386 2.53811-8.72479 6.52441-9.31571 11.52611-.35715 3.0179 1.05196 5.4865 3.95329 7.5428 1.85582 1.3141 4.04552 2.1827 6.40392 2.7917 2.9442.7609 5.9728 1.3542 9.1027 1.3846 7.2429.0715 21.6064.2994 32.0592-1.3846 10.4529-1.684 12.8045-1.3834 16.0092-3.3001 4.9075-2.935 4.9545-4.6064 4.9545-8.979 0-1.719-1.1013-3.0539-3.221-4.9214-2.1198-1.8676-8.3226-5.23673-8.8902-5.4218-8.6208-2.8152-19.4569-4.04912-30.3921-3.18351-.3416 0-1.9974-.0049-3.6533.00098zm34.9938 0c3.491 1.1721 7.7859 4.25991 10.2339 6.41413 2.1572 1.8997 6.7609 9.0562 2.0319 15.459-4.7289 6.4028-7.6089 5.3163-20.6469 7.5118-8.1717 1.376-29.514 1.9397-38.0271.7284-2.8714-.4083-5.6507-1.0076-8.3247-1.8801-2.90655-.9478-5.3845-2.3442-7.38842-4.1978-2.30651-2.1337-3.5857446-4.567-3.55327672-7.3411.07792282-6.8015 3.82341672-12.18022 11.61439672-15.60056 5.7559-2.5283 12.0118-4.258543 18.8625-4.246793 1.452.001958 2.9052 0 3.2923 0 11.552-.957657 22.517.001958 31.9054 3.153023z" fill="#c084fc" fill-rule="evenodd"/></svg>

<svg width="80" height="35" viewBox="0 0 80 35" fill="none" xmlns="http://www.w3.org/2000/svg">
<path fill-rule="evenodd" clip-rule="evenodd" d="M30.6814 3.65047C24.4879 3.67495 18.8774 5.29063 13.6709 7.59469C7.93704 10.1328 4.94611 14.1191 4.35519 19.1208C3.99804 22.1387 5.40715 24.6073 8.30848 26.6636C10.1643 27.9777 12.354 28.8463 14.7124 29.4553C17.6566 30.2162 20.6852 30.8095 23.8151 30.8399C31.058 30.9114 45.4215 31.1393 55.8743 29.4553C66.3272 27.7713 68.6788 28.0719 71.8835 26.1552C76.791 23.2202 76.838 21.5488 76.838 17.1762C76.838 15.4572 75.7367 14.1223 73.617 12.2548C71.4972 10.3872 65.2944 7.01807 64.7268 6.833C56.106 4.0178 45.2699 2.78388 34.3347 3.64949C33.9931 3.64949 32.3373 3.64459 30.6814 3.65047ZM65.6752 3.65047C69.1662 4.82257 73.4611 7.91038 75.9091 10.0646C78.0663 11.9643 82.67 19.1208 77.941 25.5236C73.2121 31.9264 70.3321 30.8399 57.2941 33.0354C49.1224 34.4114 27.7801 34.9751 19.267 33.7638C16.3956 33.3555 13.6163 32.7562 10.9423 31.8837C8.03575 30.9359 5.5578 29.5395 3.55388 27.6859C1.24737 25.5522 -0.0318646 23.1189 0.000603285 20.3448C0.0785261 13.5433 3.82402 8.16458 11.615 4.74424C17.3709 2.21594 23.6268 0.485697 30.4775 0.497447C31.9295 0.499405 33.3827 0.497447 33.7698 0.497447C45.3218 -0.46021 56.2868 0.499405 65.6752 3.65047Z" fill="#C084FC"/>
</svg>
